week0/img/pulseclock_clockmode.svg

<svg fill="none" height="400" viewBox="0 0 400 400" width="400" xmlns="http://www.w3.org/2000/svg"><g stroke="#bfd0fc" stroke-miterlimit="10"><path d="m200 397.531c109.093 0 197.531-88.438 197.531-197.531 0-109.0933-88.438-197.53085-197.531-197.53085-109.0932 0-197.53076 88.43755-197.53076 197.53085 0 109.093 88.43756 197.531 197.53076 197.531z"/><path d="m269.975 61.3827c5.455 0 9.877-4.4219 9.877-9.8765 0-5.4547-4.422-9.8766-9.877-9.8766-5.454 0-9.876 4.4219-9.876 9.8766 0 5.4546 4.422 9.8765 9.876 9.8765z"/><path d="m50.9137 278.617c5.4546 0 9.8765-4.422 9.8765-9.876 0-5.455-4.4219-9.877-9.8765-9.877-5.4547 0-9.8766 4.422-9.8766 9.877 0 5.454 4.4219 9.876 9.8766 9.876z"/><path d="m358.42 253.037c5.454 0 9.876-4.422 9.876-9.876 0-5.455-4.422-9.877-9.876-9.877-5.455 0-9.877 4.422-9.877 9.877 0 5.454 4.422 9.876 9.877 9.876z"/></g></svg>

<svg width="400" height="400" viewBox="0 0 400 400" fill="none" xmlns="http://www.w3.org/2000/svg">
<path d="M200 397.531C309.093 397.531 397.531 309.093 397.531 200C397.531 90.9067 309.093 2.46915 200 2.46915C90.9068 2.46915 2.46924 90.9067 2.46924 200C2.46924 309.093 90.9068 397.531 200 397.531Z" stroke="#BFD0FC" stroke-miterlimit="10"/>
<path d="M269.975 61.3827C275.43 61.3827 279.852 56.9608 279.852 51.5062C279.852 46.0515 275.43 41.6296 269.975 41.6296C264.521 41.6296 260.099 46.0515 260.099 51.5062C260.099 56.9608 264.521 61.3827 269.975 61.3827Z" stroke="#BFD0FC" stroke-miterlimit="10"/>
<path d="M50.9137 278.617C56.3683 278.617 60.7902 274.195 60.7902 268.741C60.7902 263.286 56.3683 258.864 50.9137 258.864C45.459 258.864 41.0371 263.286 41.0371 268.741C41.0371 274.195 45.459 278.617 50.9137 278.617Z" stroke="#BFD0FC" stroke-miterlimit="10"/>
<path d="M358.42 253.037C363.874 253.037 368.296 248.615 368.296 243.161C368.296 237.706 363.874 233.284 358.42 233.284C352.965 233.284 348.543 237.706 348.543 243.161C348.543 248.615 352.965 253.037 358.42 253.037Z" stroke="#BFD0FC" stroke-miterlimit="10"/>
</svg>
